!!!OTL: Prosa de S Spiritu
**kern
*staff1
=--
*clefC1
*k[b-]
*met(c|)
*M2/2
1.a
2a
=-
1a
1a
=-
1dd
1cc
=-
1dd
1.cc
2cc
1dd
=-
1dd
1.cc
2cc
1dd
=-
1a
1b-
=-
1cc
1dd
!!linebreak:original
=-
1dd
1cc
=-
!LO:TX:Y=-39:t=P
1dd
1cc
=-
!LO:TX:Y=-38:t=P
1cc
1a
=-
1b-
1b-
=-
1a
1dd
=-
!LO:TX:Y=-35:t=P
1a
1a
=-
!LO:TX:Y=128:t=P
1.b-
2b-
=-
0b-
!!linebreak:original
=-
1.a
2a
=-
!LO:TX:Y=-36:t=P
1b-
1a
=-
1.cc
2cc
=-
!LO:TX:Y=-36:t=P
1dd
1cc
=-
1cc
1b-
=-
!LO:TX:Y=-37:t=P
1a
1b-
=-
1cc
1.dd
2dd
1.cc
2cc
1dd
=-
!!linebreak:original
1cc
1cc
=-
1a
1dd
=-
1dd
1cc
=-
1dd
2r
2a
=-
1.b-
2a
=-
!LO:TX:Y=122:t=P
1b-
0b-
!!linebreak:original
=-
1.a
2a
=-
1a
1a
=-
1b-
1cc
=-
!LO:TX:Y=-36:t=P
1a
1a
=-
1b-
1cc
=-
1dd
1.cc
2cc
1dd
=-
!!pagebreak:original
1.cc
2b-
1cc
1dd
=-
1.cc
2b-
1dd
2r
2a
=-
1b-
2b-
2a
1.b-
2b-
=-
0a
=-
!!linebreak:original
1d
1a
=-
1b-
1a
=-
1cc
1b-
=-
!LO:TX:Y=-36:t=P
1a
1a
=-
1b-
1a
=-
1g
1f
=-
!LO:TX:Y=-35:t=P
1g
1a
=-
!!linebreak:original
1f
1g
=-
1a
1g
=-
1.cc
2b-
=-
!LO:TX:Y=-34:t=P
1a
2a
2a
=-
2b-
2a
1.b-
2b-
0b-
=-
!!linebreak:original
1cc
1dd
=-
1g
1a
=-
1cc
1b-
=-
!LO:TX:Y=-31:t=P
1a
1cc
=-
1b-
1a
=-
1g
1f
=-
!LO:TX:Y=-38:t=P
1g
1a
=-
!!linebreak:original
1f
1g
=-
1a
1g
=-
1cc
1b-
=-
1a
2r
2a
=-
2b-
2a
1b-
=-
0a
=-=
*-
!!title: @{OTL}, @{GTL}, ed. @{ENC}
!!!pag:
!!!GTL: Hymnbook C
!!!EFL: 
!!!YEM: Creative Commons CC/BY/NC/SA 4.0
!!!ENC: Marcin Konik
!!!END: 2015-0m-dd
!!!EED: Marcin Konik
!!!EEV: 
!!!ONB: Encoded in vim by Marcin Konik
!!!CharacterEncoding: utf-8
!!!RDF**kern: l=long note in original notation
!!!RDF**kern: i=editorial accidental
!!muse2ps: z14jc180F
!!!COM: Anonim
!!!CDT: [?]
!!!TXO: Polish
!!!ODT: 
!!!GTL: Hymnbook C
!!!ARL: Opactwo św. Wojciecha, Staniątki 
!!!voices:	1
